!!!!SEGMENT: pl-sa--l-1643--072_anonim--hodie-sactus-benedictus.krn
!!!cenid: 16xx:1430
!!!COM: Anonim
!!!COM-rismID: pe30004985
!!!CDT:
!!!CNT:
!!!OTL: Hodie sactus Benedictus
!!!PDT:
!!!AGN: Sacred
!!!SMS-siglum: PL-SA
!!!SMS-shelfmark: L 1643
!!!SMS-shelfwork: 068 W
!!!SMS-variant:
!!!SMS-altvar:
!!!NIFC-rismSourceID: 1001064253
!!!NIFC-rismChildID: 1001064253
!!!NIFC-islandoraID:
!!!URL-pdf-islandora:
!!!URL-scan:
!!!ONB-nifc: UWAGA: 8 ksiąg. Primi chori: 1mus Cantus (x), C 2dus (117), C 3tius (x), Bassus (x); Secondi chori: Primus Cantus (x), C 2dus (x), Altus (x), Bassus (120-121). UWAGA: Nie dodawać pustych linii, chyba że w rękopisie pojawiają się dodatkowe oznaczenia dotyczące pełnej obsady (a 4, a 8 itp.)
!!!AIN: 2 empty
!!!key:
**kern	**text	**kern	**text
*part2	*part2	*part1	*part1
*staff2	*staff2	*staff1	*staff1
*Iempty	*	*Iempty	*
*I"Baſsus 2di Chori.	*	*I"Cantus 2dus Primi Chori.	*
*I'Coro 2 B	*	*I'Coro 1 S 2	*
*clefC3	*	*clefC1	*
*k[]	*	*k[]	*
*c:	*	*c:	*
*M2/2	*	*M2/2	*
*met(c|)	*	*met(c|)	*
=1-	=1-	=1-	=1-
!LO:TX:t=Pro Feſto Sa\nncti Benedicti	!	!	!
2.c/	Ho-	0r	.
4c/	-di-	.	.
=2-	=2-	=2-	=2-
2d\	-e	.	.
*custos:e	*	*	*
2f\	San-	.	.
=3-	=3-	=3-	=3-
!LO:LB:g=original	!	!	!
2e\	-ctus	2.cc\	Ho-
2e\	Be-	.	.
.	.	4cc\	-di-
=4-	=4-	=4-	=4-
2d\	-ne-	2a\	-e
2d\	-dic-	2f/	ſan-
=5-	=5-	=5-	=5-
1c	-tus	2g/	-ctus
.	.	2g/	be-
=6-	=6-	=6-	=6-
0r	.	2.a\	-ne-
.	.	4b\	-dic-
=7-	=7-	=7-	=7-
.	.	2cc\	-tus
.	.	2cc\	be-
=8-	=8-	=8-	=8-
1r	.	2b\	-ne-
.	.	2b\	-dic-
=9-	=9-	=9-	=9-
2r	.	2cc\	-tus,
2.d\	Ho-	2r	.
=10-	=10-	=10-	=10-
.	.	0r	.
4d\	-di-	.	.
2e\	-e	.	.
=11-	=11-	=11-	=11-
1g	San-	.	.
=12-	=12-	=12-	=12-
2f\	-ctus	2.dd\	ho-
2f\	Be-	.	.
.	.	4dd\	-di-
=13-	=13-	=13-	=13-
2e\	-ne-	2b\	-e
2e\	-dic-	2g/	san-
=14-	=14-	=14-	=14-
1d	-tus	2dd\	-ctus
.	.	2a\	be-
=15-	=15-	=15-	=15-
0r	.	2.b\	-ne-
*	*	*custos:dd	*
.	.	4cc\	-di-
=16-	=16-	=16-	=16-
!	!	!LO:LB:g=original	!
.	.	2dd\	-ctus
.	.	2dd\	be-
=17-	=17-	=17-	=17-
!	!	!LO:TX:b:t=P:problem=# below	!
1r	.	2cc#\	-ne-
!	!	!LO:TX:b:t=P:problem=# below	!
.	.	2cc#X\	-dic-
=18-	=18-	=18-	=18-
2r	.	2dd\	-tus,
2g\	San-	2r	.
=19-	=19-	=19-	=19-
2g\	-ctus	2r	.
2c/	Be-	2ccny\	ſan-
=20-	=20-	=20-	=20-
*custos:g	*	*	*
2g\	-ne-	2b\	-ctus
!LO:PB:g=original	!	!	!
2g\	-dic-	2cc\	be-
=21-	=21-	=21-	=21-
2g,\	-tus	2b\	-ne-
2g\	San-	2b\	-dic-
=22-	=22-	=22-	=22-
2g\	-ctus	2b,<\	-tus,
2c/	Be-	2cc\	san-
=23-	=23-	=23-	=23-
2g\	-ne-	2b\	-ctus
2g\	-dic-	2cc\	be-
=24-	=24-	=24-	=24-
2g,\	-tus	1b	-ne-
2g\	Be-	.	.
=25-	=25-	=25-	=25-
2d\	-ne-	1a	-dic-
2d\	-dic-	.	.
=26-	=26-	=26-	=26-
2g,\	-tus	2b\	-tus
2g\	Per	2r	.
=27-	=27-	=27-	=27-
2d\	vi-	00r	.
2G/	-am	.	.
=28-	=28-	=28-	=28-
2c/	o-	.	.
2B/	-ri-	.	.
=29-	=29-	=29-	=29-
1A	-en-	.	.
=30-	=30-	=30-	=30-
2G,</	-tis	.	.
1c\	re-	.	.
=31-	=31-	=31-	=31-
*custos:f	*	*	*
.	.	0r	.
!LO:LB:g=original	!	!	!
2f\	-cto	.	.
=32-	=32-	=32-	=32-
2.g\	tra-	.	.
4g\	-mi-	.	.
=33-	=33-	=33-	=33-
2c/	-te	2r	.
2r	.	2cc\	vi-
=34-	=34-	=34-	=34-
0r	.	2.cc\	-den-
.	.	4cc\	-ti-
=35-	=35-	=35-	=35-
*	*	*custos:cc	*
.	.	2b\	-bus
!	!	!LO:LB:g=original	!
.	.	2cc\	dis-
=36-	=36-	=36-	=36-
1r	.	2.cc\	-ci-
.	.	4cc\	-pu-
=37-	=37-	=37-	=37-
2r	.	2cc\	-lis,
2d\	cae-	2r	.
=38-	=38-	=38-	=38-
2g\	-lum	0r	.
2d\	aſ-	.	.
=39-	=39-	=39-	=39-
1A	-cen-	.	.
=40-	=40-	=40-	=40-
2d\	-dit	2r	.
2r	.	2b\	cae-
=41-	=41-	=41-	=41-
0r	.	2cc\	-lum
.	.	2dd\	as-
=42-	=42-	=42-	=42-
.	.	1dd	-cen-
=43-	=43-	=43-	=43-
2r	.	2dd,\	-dit
1g\	Ho-	1b\	Ho-
=44-	=44-	=44-	=44-
.	.	.	.
2g\	-di-	2b\	-di-
=45-	=45-	=45-	=45-
1c	-e	2cc\	-e
.	.	2cc\	e-
=46-	=46-	=46-	=46-
0r	.	2a\	-rec-
.	.	2g/	-tis
=47-	=47-	=47-	=47-
.	.	2.a\	ma-
.	.	4b\	-ni-
=48-	=48-	=48-	=48-
2r	.	2cc\	-bus,
1A/	in-	2r	.
=49-	=49-	=49-	=49-
.	.	0r	.
2G/	-ter	.	.
=50-	=50-	=50-	=50-
1c	Ver-	.	.
=51-	=51-	=51-	=51-
2G/	-ba	2r	.
2r	.	2cc\	o-
=52-	=52-	=52-	=52-
0r	.	2a\	-ra-
*	*	*custos:cc	*
.	.	1dd\	-ti-
=53-	=53-	=53-	=53-
!	!	!LO:TX:b:t=P:problem=# below	!
!	!	!LO:LB:g=original	!
.	.	2cc#\	-o-
=54-	=54-	=54-	=54-
2r	.	1dd	-nis,
4G/	a-	.	.
*custos:c	*	*	*
4G/	-ni-	.	.
=55-	=55-	=55-	=55-
!LO:LB:g=original	!	!	!
2c/	-mam	0r	.
2B/	ef-	.	.
=56-	=56-	=56-	=56-
1A	-fla-	.	.
=57-	=57-	=57-	=57-
2G,</	-vit	2r	.
1F/	Ho-	1ccny\	Ho-
=58-	=58-	=58-	=58-
.	.	.	.
2F/	-di-	2a\	-di-
=59-	=59-	=59-	=59-
2c/	-e	2cc\	-e
2G/	in	2r	.
=60-	=60-	=60-	=60-
4.c/	glo-	2r	.
8c/	-ri-	.	.
2c/	-a	4r	.
.	.	4cc\	in
=61-	=61-	=61-	=61-
2r	.	4.b\	glo-
.	.	8b\	-ri-
4r	.	2b\	-a
4g\	in	.	.
=62-	=62-	=62-	=62-
4.c/	glo-	2r	.
8c/	-ri-	.	.
2c/	-a	4r	.
.	.	4cc\	in
=63-	=63-	=63-	=63-
2r	.	4.cc\	glo-
.	.	8cc\	-ri-
4r	.	2cc\	-a
4F/	in	.	.
=64-	=64-	=64-	=64-
4.c/	glo-	2r	.
8c/	-ri-	.	.
4c/	-a	4r	.
4g\	in	4dd\	in
=65-	=65-	=65-	=65-
4.c/	glo-	4.cc\	glo-
*custos:c	*	*	*
8c/	-ri-	8cc\	-ri-
!LO:LB:g=original	!	!	!
4c/	-a	4cc,<\	-a
4G/	in	4b\	in
=66-	=66-	=66-	=66-
4.c/	glo-	4.cc\	glo-
*	*	*custos:cc	*
8c/	-ri-	8cc\	-ri-
!	!	!LO:LB:g=original	!
4c,</	-a	4cc\	-a
4c/	in	4cc\	in
=67-	=67-	=67-	=67-
4.F/	glo-	4.a\	glo-
8F/	-ri-	8a\	-ri-
2F/	-a	4cc\	-a
.	.	4cc\	ab
=68-	=68-	=68-	=68-
1r	.	2.b\	an-
.	.	4b\	-ge-
=69-	=69-	=69-	=69-
2r	.	1cc	-lis
2c/	ſus-	.	.
=70-	=70-	=70-	=70-
2c/	-ci-	1r	.
2G/	-pi-	.	.
=71-	=71-	=71-	=71-
2c/	-tur	2r	.
2r	.	2b\	ſus-
=72-	=72-	=72-	=72-
1r	.	2.cc\	-cep-
.	.	4cc\	-tus
=73-	=73-	=73-	=73-
2r	.	2b\	eſt
2c/	ſus-	2r	.
=74-	=74-	=74-	=74-
2.G/	-ci-	1r	.
4G/	-pi-	.	.
=75-	=75-	=75-	=75-
2c/	-tur	2r	.
2r	.	2cc\	ſus-
=76-	=76-	=76-	=76-
1r	.	2.cc\	-cep-
.	.	4cc\	-tus
=77-	=77-	=77-	=77-
2r	.	2cc\	eſt
2f\	ſus-	2r	.
=78-	=78-	=78-	=78-
2.c/	-ci-	1r	.
4c/	-pi-	.	.
=79-	=79-	=79-	=79-
*custos:g	*	*	*
2f\	-tur	2r	.
!LO:LB:g=original	!	!	!
2r	.	2dd\	sus-
=80-	=80-	=80-	=80-
1r	.	2.dd\	-cep-
*	*	*custos:dd	*
.	.	4dd\	-tus
=81-	=81-	=81-	=81-
!	!	!LO:LB:g=original	!
2r	.	2dd,<\	eſt
2g\	Ab	2b\	ab
=82-	=82-	=82-	=82-
2.c/	An-	2.cc\	an-
4c/	-ge-	4cc\	-ge-
=83-	=83-	=83-	=83-
2g\	-lis	2b,<\	-lis,
2G/	Ab	2b\	ab
=84-	=84-	=84-	=84-
2.c/	An-	2.cc\	an-
4c/	-ge-	4cc\	-ge-
=85-	=85-	=85-	=85-
2c/	-lis	2cc,<\	-lis,
2g\	ſus-	2b\	ſus-
=86-	=86-	=86-	=86-
1.c	-ci-	1.cc	-cep-
=87-	=87-	=87-	=87-
.	.	.	.
2c/	-pi-	2cc\	-tus
=88-	=88-	=88-	=88-
!LO:N:vis=00	!	!LO:N:vis=00	!
0g	-tur	0b	eſt;
==	==	==	==
*-	*-	*-	*-
!!!system-decoration: [(s1)][(s2)]
!!!RDF**kern: > = above
!!!RDF**kern: < = below
!!!ENC: Filip Voros
!!!END: 2021-10-18
!!!ENC: Krzysztof Stępień
!!!END: 2021-10-22
!!!YEC: Copyright 2022 Narodowy Instytut Fryderyka Chopina (https://polishscores.org)
!!!YEM: License CC-BY-4.0 (https://creativecommons.org/licenses/by/4.0)
